X: 9
T:Abeâ€™s Retreat
R:Reel
M:4/4
L:1/8
N:Transcribed by Bruce Thomson from Laurie Phillips
K:A
||z4z2cB|:â€Aâ€ABcB ABcd|ef=gf
edcB|A2A2B3A|â€Eâ€GE3E2cB|
â€œAâ€ABcB ABcd|ef=gf eAaA|â€Eâ€bAaA
=g2ed|[1â€³Aâ€cA3A2cB:|[2â€³Aâ€cA3A4||
|:â€Aâ€a3b a=gef|=g2f2e4|a4b3a|â€Eâ€=g e3e4â€³Aâ€a3b
a=gef|=g2f2e2aA|â€Eâ€bAaA =g2ed|â€Aâ€cA3 A4:|

